X: 15493
T: Glenglass
R: reel
M: 4/4
K: Bminor
B2 BA BA c2-|c2 F2 FE FA|B2 BA Be c2-|c2 f2 fe ef|
B2 BA Bd c2-|c2 A2 FE FA|1 B2 e2 BA B2-|B4:|2 B2 e2 BA F2-|F4||
B2 BA Bd c2-|c2 A2 de ed|f2 fe dB e2-|e2 fg gf ed|
[1 B2 BA Bd c2-|c2 A2 FE FA|B2 e2 BA B2-|B4:|
[2 G2 GF Ge d2-|d2 B2 ED EF|G2 GF GA B2- B2 FA Be dc||
|:B2 BA BA c2-|c2 F2 FE FA|B2 BA Be c2-|c2 f2 fe ef|
B2 BA Bd c2-|c2 A2 FE FA|1 B2 e2 BA B2-|B2 fe e2 ed:|2 B2 e2 BA F2-|F4||
B2 BA Bd c2-|c2 A2 de ed|f2 fe dB e2-|e2 fg gf ed|
[1 B2 BA Bd c2-|c2 A2 FE FA|B2 e2 BA B2-|B4:|
[2 G2 GF Ge d2-|d2 B2 ED EF|G2 GF GA B2-|B4||

